svg/v.svg

<svg width="7" height="16" viewBox="0 0 7 16" fill="none" xmlns="http://www.w3.org/2000/svg">
<path d="M1.50386 1C1.50387 2.00128 1.45675 3.06101 1.50385 4.11111C1.55095 5.16121 1.9607 5.51321 2.6057 6.18519C3.10341 6.7037 4.13042 7.19128 5.18449 7.54071C5.40069 7.61238 6.45444 8.00894 6.45444 8.00894C6.45444 8.00894 6.53294 8.00214 6.18934 8.11257C5.45188 8.34958 4.70484 8.67196 4.03444 8.99791C3.63627 9.1915 2.93667 9.71803 2.93667 9.71803C2.93667 9.71803 1.69671 10.5575 1.50383 11.3704C1.41005 11.7656 1.50385 15 1.50385 15" stroke="white" stroke-linecap="round" stroke-linejoin="round"/>
</svg>

<svg fill="none" xmlns="http://www.w3.org/2000/svg" viewBox="0 0 7 16"><path d="M1.504 1c0 1.001-.047 2.061 0 3.111.047 1.05.457 1.402 1.102 2.074.497.519 1.524 1.006 2.578 1.356.217.071 1.27.468 1.27.468s.079-.007-.265.104c-.737.237-1.484.559-2.155.885-.398.194-1.097.72-1.097.72s-1.24.84-1.433 1.652c-.094.396 0 3.63 0 3.63" stroke="#fff" stroke-linecap="round" stroke-linejoin="round"/></svg>
